P2
# Diamond-Square terrain
33 33
255
127 94 94 81 95 92 82 120 144 127 112 53 15 10 26 13 0 0 0 2 0 0 11 5 0 12 15 41 23 73 94 115 127 
102 100 92 98 100 88 104 108 122 114 84 73 26 36 12 13 13 3 15 4 11 0 0 0 9 39 29 56 46 54 104 118 122 
115 107 120 94 112 91 83 90 92 89 81 74 33 52 31 6 10 28 11 20 9 1 19 33 17 30 62 54 60 73 94 116 108 
111 100 108 102 88 71 77 98 106 93 80 55 46 46 16 27 9 26 9 16 14 23 33 39 37 57 45 50 51 71 75 88 105 
99 105 87 68 80 53 49 96 122 82 91 64 76 34 19 0 0 30 34 27 0 41 47 61 72 59 44 31 44 72 72 94 130 
70 85 63 52 52 32 25 61 71 76 74 86 83 55 20 14 34 30 53 46 25 52 52 54 57 47 45 48 54 67 75 114 124 
43 59 66 37 33 38 20 56 64 64 61 75 94 73 44 29 35 38 52 55 46 49 63 73 44 62 81 75 62 101 103 111 95 
45 57 41 43 22 38 21 18 23 51 82 89 92 86 68 62 44 71 63 93 89 76 90 85 49 62 87 86 98 109 104 118 111 
54 30 45 42 0 26 47 28 0 37 84 87 87 78 89 75 59 85 98 88 117 98 107 89 67 58 65 98 145 117 108 132 140 
30 25 33 18 37 43 41 42 32 46 90 87 84 104 89 101 90 91 95 108 103 103 108 83 92 83 67 82 113 133 141 138 130 
1 0 0 41 56 64 61 69 66 64 82 81 81 110 124 114 76 81 113 132 143 128 97 80 96 94 77 100 97 124 145 126 133 
0 0 14 44 55 41 42 60 70 92 102 132 125 134 136 104 98 87 92 128 122 128 111 101 99 81 110 111 109 136 119 133 101 
0 17 44 64 54 51 53 72 111 118 154 156 150 119 125 117 97 100 91 115 126 122 89 103 75 79 110 117 146 139 118 107 82 
0 6 19 54 64 60 87 101 130 137 147 143 124 123 130 100 106 109 97 107 130 123 110 93 79 102 90 119 120 108 108 98 93 
1 17 31 51 45 68 98 129 127 124 145 131 142 126 116 114 107 116 119 124 142 109 116 77 79 96 84 118 112 111 100 92 70 
4 22 36 47 64 83 106 135 133 149 143 149 154 119 113 104 112 108 90 104 118 101 84 85 85 81 92 114 105 107 112 93 80 
0 36 65 75 87 101 127 143 164 167 148 168 146 114 121 127 134 106 89 91 94 92 52 69 48 93 98 102 135 139 135 122 121 
33 23 43 64 74 121 131 159 161 170 155 168 160 133 124 142 135 128 116 82 97 68 67 63 79 86 87 103 114 128 132 150 132 
30 49 33 84 84 126 156 184 181 170 162 175 173 136 149 144 128 122 115 104 83 73 69 60 77 96 87 97 95 118 136 157 159 
33 49 75 93 121 136 183 190 199 198 179 179 177 140 128 119 119 106 104 99 103 96 89 85 68 79 87 117 132 141 170 185 183 
6 49 68 116 139 143 190 202 220 213 186 185 169 132 101 83 86 96 94 121 131 132 102 112 93 103 122 129 128 139 187 186 206 
47 58 92 108 136 159 185 184 192 201 199 170 162 145 116 88 107 110 123 130 133 142 134 128 126 158 151 132 158 161 190 213 223 
42 50 88 120 142 164 176 174 210 201 189 154 160 118 91 80 84 97 132 137 171 161 178 178 175 190 181 146 153 177 202 202 218 
41 49 86 93 108 132 145 178 210 198 179 160 130 124 96 110 92 104 120 155 192 187 204 210 197 207 189 175 175 208 223 224 240 
25 62 74 100 120 141 126 176 191 182 157 152 120 130 120 112 83 99 112 164 208 208 238 234 255 217 191 210 226 228 212 214 240 
67 72 63 86 109 132 130 153 146 159 147 120 104 121 120 92 102 116 122 161 200 234 222 235 223 205 211 207 221 227 229 232 255 
62 61 68 79 108 138 123 127 124 120 117 101 118 93 106 114 110 108 138 174 216 200 213 219 190 199 196 202 219 207 220 226 246 
66 62 79 106 126 126 137 112 107 110 119 86 81 82 80 95 101 123 151 167 207 197 196 180 180 189 181 174 164 165 193 194 205 
56 69 82 91 110 125 126 114 88 103 110 72 63 73 70 92 90 124 125 161 211 210 176 177 149 179 168 174 137 143 140 185 197 
71 78 90 95 91 90 98 89 71 80 72 84 98 107 110 111 129 149 161 174 204 200 183 165 165 161 150 157 140 125 129 169 169 
89 92 57 88 83 58 59 51 40 51 59 95 107 125 129 127 167 167 171 185 199 174 183 163 148 165 161 138 113 139 123 141 176 
95 99 98 71 79 60 63 58 54 61 75 113 139 156 161 151 174 182 168 170 193 173 153 138 135 159 153 134 117 138 120 124 139 
127 118 102 63 53 47 44 59 39 58 98 128 152 159 184 175 177 189 178 189 180 165 140 121 130 158 163 149 130 129 123 116 127 
